icons/aurous.svg

<?xml version="1.0" encoding="UTF-8" standalone="no"?>
<svg width="256px" height="286px" viewBox="0 0 256 286" version="1.1" xmlns="http://www.w3.org/2000/svg" xmlns:xlink="http://www.w3.org/1999/xlink" preserveAspectRatio="xMidYMid">
    <defs>
        <linearGradient x1="0%" y1="50%" x2="100%" y2="50%" id="linearGradient-1">
            <stop stop-color="#52F2C9" offset="0%"></stop>
            <stop stop-color="#52F2C9" offset="9.87647947%"></stop>
            <stop stop-color="#8573E2" offset="100%"></stop>
        </linearGradient>
    </defs>
    <g>
        <path d="M22.37,285.191864 C18.516,285.191864 14.664,284.175864 11.156,282.143864 C4.171,278.095864 0,270.858864 0,262.785864 L0,21.9078643 C0,14.0208643 4.073,6.94786435 10.895,2.98886435 C17.717,-0.971135652 25.878,-0.997135652 32.727,2.91686435 L188.201,91.7638643 C192.034,93.9548643 193.365,98.8378643 191.175,102.670864 C188.984,106.503864 184.105,107.836864 180.268,105.644864 L24.795,16.7978643 C22.137,15.2798643 19.801,16.3048643 18.919,16.8168643 C18.038,17.3288643 15.988,18.8488643 15.988,21.9078643 L15.988,262.785864 C15.988,266.106864 18.214,267.754864 19.171,268.308864 C20.128,268.863864 22.665,269.976864 25.546,268.323864 L226.039,153.371864 L202.928,153.371864 C198.513,153.371864 194.934,149.791864 194.934,145.376864 L194.934,140.047864 L184.942,140.047864 L184.942,158.200864 C184.942,162.615864 181.362,166.194864 176.948,166.194864 L151.634,166.194864 C147.22,166.194864 143.64,162.615864 143.64,158.200864 L143.64,124.892864 L133.398,124.892864 L133.398,181.265864 C133.398,185.680864 129.819,189.259864 125.404,189.259864 L99.174,189.259864 C94.76,189.259864 91.18,185.680864 91.18,181.265864 L91.18,101.410864 L81.355,101.410864 L81.355,209.993864 C81.355,214.408864 77.775,217.987864 73.36,217.987864 L46.714,217.987864 C42.299,217.987864 38.72,214.408864 38.72,209.993864 L38.72,65.7708643 L35.389,65.7708643 C30.974,65.7708643 27.395,62.1918643 27.395,57.7768643 C27.395,53.3618643 30.974,49.7828643 35.389,49.7828643 L46.714,49.7828643 C51.129,49.7828643 54.708,53.3618643 54.708,57.7768643 L54.708,202.000864 L65.366,202.000864 L65.366,93.4168643 C65.366,89.0018643 68.945,85.4228643 73.36,85.4228643 L99.174,85.4228643 C103.589,85.4228643 107.168,89.0018643 107.168,93.4168643 L107.168,173.271864 L117.41,173.271864 L117.41,116.898864 C117.41,112.483864 120.99,108.904864 125.404,108.904864 L151.634,108.904864 C156.049,108.904864 159.628,112.483864 159.628,116.898864 L159.628,150.206864 L168.954,150.206864 L168.954,132.053864 C168.954,127.638864 172.533,124.059864 176.948,124.059864 L202.928,124.059864 C207.343,124.059864 210.922,127.638864 210.922,132.053864 L210.922,137.382864 L245.066,137.382864 C250.086,137.382864 254.327,140.642864 255.618,145.493864 C256.91,150.344864 254.851,155.281864 250.495,157.777864 L33.498,282.193864 C30.011,284.192864 26.19,285.191864 22.37,285.191864" fill="url(#linearGradient-1)"></path>
    </g>
</svg>

<svg xmlns="http://www.w3.org/2000/svg" viewBox="0 0 256 285.192">
  <defs>
    <linearGradient id="a" x1="0" x2="270.202" y1="135.101" y2="135.101" gradientTransform="scale(.94744 1.05548)" gradientUnits="userSpaceOnUse">
      <stop offset="0%" stop-color="#52F2C9"/>
      <stop offset="9.876%" stop-color="#52F2C9"/>
      <stop offset="100%" stop-color="#8573E2"/>
    </linearGradient>
  </defs>
  <path fill="url(#a)" d="M22.37 285.192c-3.854 0-7.706-1.016-11.214-3.048C4.171 278.096 0 270.859 0 262.786V21.908c0-7.887 4.073-14.96 10.895-18.92 6.822-3.96 14.983-3.985 21.832-.071l155.474 88.847a7.995 7.995 0 0 1-7.933 13.88L24.795 16.799c-2.658-1.518-4.994-.493-5.876.019-.881.512-2.931 2.032-2.931 5.09v240.879c0 3.32 2.226 4.969 3.183 5.523.957.555 3.494 1.668 6.375.015l200.493-114.952h-23.111a7.995 7.995 0 0 1-7.994-7.995v-5.33h-9.992v18.154a7.995 7.995 0 0 1-7.994 7.994h-25.314a7.995 7.995 0 0 1-7.994-7.994v-33.308h-10.242v56.373a7.994 7.994 0 0 1-7.994 7.994h-26.23a7.995 7.995 0 0 1-7.994-7.994V101.41h-9.825v108.583a7.995 7.995 0 0 1-7.995 7.994H46.714a7.994 7.994 0 0 1-7.994-7.994V65.77h-3.331a7.994 7.994 0 1 1 0-15.988h11.325a7.994 7.994 0 0 1 7.994 7.994V202h10.658V93.417a7.994 7.994 0 0 1 7.994-7.994h25.814a7.994 7.994 0 0 1 7.994 7.994v79.855h10.242v-56.373a7.995 7.995 0 0 1 7.994-7.994h26.23a7.994 7.994 0 0 1 7.994 7.994v33.308h9.326v-18.153a7.994 7.994 0 0 1 7.994-7.994h25.98a7.994 7.994 0 0 1 7.994 7.994v5.329h34.144c5.02 0 9.261 3.26 10.552 8.11 1.292 4.852-.767 9.789-5.123 12.285L33.498 282.194c-3.487 1.999-7.308 2.998-11.128 2.998" style="fill:url(#a)"/>
</svg>
